fs/tab_desktop_arrow_clockwise_24_filled.svg

<svg viewBox="0 0 24 24" fill="none" xmlns="http://www.w3.org/2000/svg" height="1em" width="1em">
  <path d="M5.75 3C4.23122 3 3 4.23122 3 5.75V11.101C4.27052 9.80447 6.04131 9 8 9C8.98324 9 9.91913 9.20272 10.7682 9.56864C11.0779 9.0768 11.6258 8.75 12.25 8.75C13.2165 8.75 14 9.5335 14 10.5V12.3924C14.6348 13.446 15 14.6803 15 16C15 17.9587 14.1955 19.7295 12.899 21H18.25C19.7688 21 21 19.7688 21 18.25V8H13.25C12.0074 8 11 6.99264 11 5.75V3H5.75ZM12.5 3V5.75C12.5 6.16421 12.8358 6.5 13.25 6.5H21V5.75C21 4.23122 19.7688 3 18.25 3H12.5ZM13 13.25C13 13.6642 12.6642 14 12.25 14H9.5C9.08579 14 8.75 13.6642 8.75 13.25C8.75 12.8358 9.08579 12.5 9.5 12.5H10.8293C10.8235 12.4956 10.8178 12.4912 10.8121 12.4867C10.0416 11.869 9.06492 11.5 8 11.5C5.51472 11.5 3.5 13.5147 3.5 16C3.5 18.4853 5.51472 20.5 8 20.5C10.4853 20.5 12.5 18.4853 12.5 16C12.5 15.5858 12.8358 15.25 13.25 15.25C13.6642 15.25 14 15.5858 14 16C14 19.3137 11.3137 22 8 22C4.68629 22 2 19.3137 2 16C2 12.6863 4.68629 10 8 10C9.30535 10 10.5149 10.4176 11.5 11.1261V10.5C11.5 10.3237 11.5608 10.1616 11.6627 10.0335C11.8001 9.86077 12.0121 9.75 12.25 9.75C12.6642 9.75 13 10.0858 13 10.5V13.25Z" fill="#212121"/>
</svg>

<svg viewBox="0 0 24 24" fill="none" xmlns="http://www.w3.org/2000/svg" height="1em" width="1em">
  <path d="M5.75 3A2.75 2.75 0 0 0 3 5.75v5.351A6.979 6.979 0 0 1 8 9c.983 0 1.92.203 2.768.569A1.749 1.749 0 0 1 14 10.5v1.892A6.968 6.968 0 0 1 15 16a6.98 6.98 0 0 1-2.101 5h5.351A2.75 2.75 0 0 0 21 18.25V8h-7.75A2.25 2.25 0 0 1 11 5.75V3H5.75Zm6.75 0v2.75c0 .414.336.75.75.75H21v-.75A2.75 2.75 0 0 0 18.25 3H12.5Zm.5 10.25a.75.75 0 0 1-.75.75H9.5a.75.75 0 0 1 0-1.5h1.33a4.478 4.478 0 0 0-2.83-1 4.5 4.5 0 1 0 4.5 4.5.75.75 0 0 1 1.5 0 6 6 0 1 1-2.5-4.874V10.5a.747.747 0 0 1 .75-.75.75.75 0 0 1 .75.75v2.75Z" fill="#212121"/>
</svg>
